X: 28
T:Triban Gwyr Morganwg
T:The War Song of the Men of Glamorgan
M:C
L:1/8
Q:150
C:Trad
S:51 Welsh Airs
R:March
A:Wales
H:From a facsimile c.1840: A Choice Collection of Fifty-One Welsh Airs
H:adapted for The Harp, Piano-Forte, Harpsichord,
H:Violin, or Flute by Edward Jones
H:"Harper to His Late Majesty King George IV, when
H:Prince of Wales".
Z:brian_martin12345@yahoo.com
K:F
"Majestic"
A>G|F2F2F2 c/B/A/G/|F>GA>B (c3B/)A/|B2dB AcAF|c2c2c2 (3fed|
c>dB>c A>BG>A|F>GA>B c3B/A/|B2B2B>cd>f|e2c>cc2 fg/a/|
g.ef.d c.AB.G|F>GA>B c3B/A/|d2d2d2de/f/|e2c>c c2 (3cde|
f>gf>e {de}d3c|B>cde fefd|c>dB>c A>BG>A|F2F>FF2:||

